X: 29868
T: O'Kanes
R: hornpipe
M: 4/4
K: Gmajor
|:(3DEF|(3GFG dG BG (3Bcd|gd (3d^cd B=cdB|(3cBc ac bgag|
dg (3gfg dBGB|cA A2 CEAG|(3FED cA FDEF|AG (3FGA G2:|
|:ef|(3gfg dg dBGB|AE E2 cBAG|(3FED FA d^c=cA|GBde fdcA|
BDGB ce e2|dedB GB (3dcB|cdfd cADF|AG (3FGA G2:|

